src/icons/folder-git.svg

<?xml version="1.0" encoding="UTF-8" standalone="no"?>
<svg
   version="1.2"
   viewBox="0 0 16 16"
   width="16"
   height="16"
   id="svg2"
   sodipodi:docname="git.svg"
   inkscape:version="1.4 (e7c3feb100, 2024-10-09)"
   xmlns:inkscape="http://www.inkscape.org/namespaces/inkscape"
   xmlns:sodipodi="http://sodipodi.sourceforge.net/DTD/sodipodi-0.dtd"
   xmlns="http://www.w3.org/2000/svg"
   xmlns:svg="http://www.w3.org/2000/svg">
  <defs
     id="defs2" />
  <sodipodi:namedview
     id="namedview2"
     pagecolor="#505050"
     bordercolor="#eeeeee"
     borderopacity="1"
     inkscape:showpageshadow="0"
     inkscape:pageopacity="0"
     inkscape:pagecheckerboard="0"
     inkscape:deskcolor="#505050"
     inkscape:zoom="37.75"
     inkscape:cx="8"
     inkscape:cy="8"
     inkscape:window-width="1316"
     inkscape:window-height="735"
     inkscape:window-x="20"
     inkscape:window-y="20"
     inkscape:window-maximized="0"
     inkscape:current-layer="svg2" />
  <title
     id="title1">folder</title>
  <style
     id="style1">
		.s0 { fill: #8080a0 } 
		.s1 { fill: #f17f66 } 
	</style>
  <g
     id="Layer 1">
    <path
       id="path1"
       class="s0"
       d="M 4.1992188 1 C 3.0992187 1 2.4996094 0.99921875 2.0996094 1.1992188 C 1.6996094 1.3992188 1.3992187 1.6996094 1.1992188 2.0996094 C 0.99921875 2.4996094 1 3.0992187 1 4.1992188 L 1 9 C 1 10.4 1.0007812 11.099609 1.3007812 11.599609 C 1.5007812 12.099609 1.9003906 12.499219 2.4003906 12.699219 C 2.9003906 12.999219 3.6 13 5 13 L 7.5996094 13 L 6.5996094 12 C 5.8996094 11.3 5.6 10.999609 5.5 10.599609 C 5.3666667 10.199609 5.3666667 9.8333333 5.5 9.5 C 5.6 9.1 5.9027198 8.802706 6.5996094 8.0996094 L 9.5742188 5.0996094 C 9.5742188 5.0996094 9.5893382 5.0985081 9.6015625 5.0976562 C 10.000089 4.6991307 10.200553 4.5 10.5 4.5 C 10.833333 4.3666667 11.199609 4.3666667 11.599609 4.5 C 11.999609 4.6 12.3 4.8996094 13 5.5996094 L 13.998047 6.5976562 C 13.99489 5.4800886 13.966624 4.8460656 13.699219 4.4003906 C 13.499219 3.9003906 13.099609 3.5007813 12.599609 3.3007812 C 12.099609 3.0007813 11.4 3 10 3 L 8.3007812 3 L 8.0996094 3 C 8.0329427 3 7.9670573 2.9670573 7.9003906 2.9003906 L 7.8007812 2.8007812 L 7.1992188 2.1992188 C 6.6992188 1.6992188 6.5007813 1.5003906 6.3007812 1.4003906 C 6.0341145 1.2670573 5.7666667 1.1662764 5.5 1.0996094 C 5.3 0.99960937 5.0007813 1 4.3007812 1 L 4.1992188 1 z " />
    <path
       id="Layer copy"
       fill-rule="evenodd"
       class="s1"
       d="m7.1 10.4c0.1 0.3 0.3 0.6 0.8 1l1.8 1.8c0.4 0.5 0.7 0.7 1 0.8q0.3 0.2 0.7 0c0.3-0.1 0.6-0.3 1-0.8l1.8-1.8c0.5-0.4 0.7-0.7 0.8-1q0.2-0.4 0-0.7c-0.1-0.3-0.3-0.6-0.8-1l-1.8-1.8c-0.4-0.5-0.7-0.7-1-0.8q-0.4-0.2-0.7 0c-0.2 0-0.4 0.2-0.7 0.4l3.2 3.2c0.2 0.2 0.2 0.5 0 0.7-0.2 0.2-0.5 0.2-0.6 0l-1.2-1.2v2.7c0 0.2-0.3 0.4-0.5 0.4-0.3 0-0.5-0.2-0.5-0.4v-3.7l-1-1-1.5 1.5c-0.5 0.4-0.7 0.7-0.8 1q-0.2 0.3 0 0.7z" />
  </g>
</svg>

<svg xmlns="http://www.w3.org/2000/svg" width="16" height="16" version="1.2"><path d="M4.2 1c-1.1 0-1.7 0-2.1.2q-.6.3-.9.9c-.2.4-.2 1-.2 2.1V9c0 1.4 0 2.1.3 2.6.2.5.6.9 1.1 1.1.5.3 1.2.3 2.6.3h2.6l-1-1c-.7-.7-1-1-1.1-1.4q-.2-.6 0-1.1c.1-.4.403-.697 1.1-1.4l2.974-3 .028-.002C10 4.699 10.2 4.5 10.5 4.5q.5-.2 1.1 0c.4.1.7.4 1.4 1.1l.998.998c-.003-1.118-.031-1.752-.299-2.198-.2-.5-.6-.9-1.1-1.1C12.1 3 11.4 3 10 3H8.1q-.1 0-.2-.1l-.1-.1-.6-.6c-.5-.5-.7-.7-.9-.8a4 4 0 0 0-.8-.3C5.3 1 5 1 4.3 1z" style="fill:#8080a0"/><path fill-rule="evenodd" d="M7.1 10.4c.1.3.3.6.8 1l1.8 1.8c.4.5.7.7 1 .8q.3.2.7 0c.3-.1.6-.3 1-.8l1.8-1.8c.5-.4.7-.7.8-1q.2-.4 0-.7c-.1-.3-.3-.6-.8-1l-1.8-1.8c-.4-.5-.7-.7-1-.8q-.4-.2-.7 0c-.2 0-.4.2-.7.4l3.2 3.2c.2.2.2.5 0 .7s-.5.2-.6 0l-1.2-1.2v2.7c0 .2-.3.4-.5.4-.3 0-.5-.2-.5-.4V8.2l-1-1-1.5 1.5c-.5.4-.7.7-.8 1q-.2.3 0 .7" style="fill:#f17f66"/></svg>
